images/icons/vector.svg

<svg width="16" height="16" viewBox="0 0 16 16" fill="none" xmlns="http://www.w3.org/2000/svg">
<path d="M8 0C3.582 0 0 3.582 0 8C0 12.418 3.582 16 8 16C12.418 16 16 12.418 16 8C16 3.582 12.418 0 8 0ZM12 7.6666C12 8.21888 11.5523 8.6666 11 8.6666H9.6666C9.11432 8.6666 8.6666 9.11432 8.6666 9.6666V11.3334C8.6666 11.7016 8.36815 12 8 12C7.63185 12 7.3334 11.7016 7.3334 11.3334V9.6666C7.3334 9.11432 6.88568 8.6666 6.3334 8.6666C5.78112 8.6666 5.3334 9.11432 5.3334 9.6666V11.3333C5.3334 11.7015 5.03491 12 4.6667 12C4.29849 12 4 11.7015 4 11.3333V4.6667C4 4.29849 4.29849 4 4.6667 4C5.03491 4 5.3334 4.29849 5.3334 4.6667V6.3334C5.3334 6.88568 5.78112 7.3334 6.3334 7.3334C6.88568 7.3334 7.3334 6.88568 7.3334 6.3334V4.6666C7.3334 4.29845 7.63185 4 8 4C8.36815 4 8.6666 4.29845 8.6666 4.6666V6.3334C8.6666 6.88568 9.11432 7.3334 9.6666 7.3334C10.2189 7.3334 10.6666 6.88568 10.6666 6.3334V4.6667C10.6666 4.29849 10.9651 4 11.3333 4C11.7015 4 12 4.29849 12 4.6667V7.6666Z" fill="black"/>
</svg>

<svg width="16" height="16" fill="none" xmlns="http://www.w3.org/2000/svg"><path d="M8 0a8 8 0 1 0 0 16A8 8 0 0 0 8 0Zm4 7.667a1 1 0 0 1-1 1H9.667a1 1 0 0 0-1 1v1.666a.667.667 0 1 1-1.334 0V9.667a1 1 0 0 0-2 0v1.666a.667.667 0 0 1-1.333 0V4.667a.667.667 0 1 1 1.333 0v1.666a1 1 0 0 0 2 0V4.667a.667.667 0 0 1 1.334 0v1.666a1 1 0 0 0 2 0V4.667a.667.667 0 0 1 1.333 0v3Z" fill="#000"/></svg>
